X:1
T:Fantasia a 4
T:Fantasia a 4
T:Jan Pieterszoon Sweelinck (1562-1621)
T:in A (Phrygian)
C:Jan Pieterszoon Sweelinck
C:
%%score { ( 1 2 5 8 ) | ( 3 4 6 7 ) }
L:1/8
Q:1/4=112
M:4/4
K:Dmin
V:1 treble nm="Piano" snm="Pno."
V:2 treble 
V:5 treble 
V:8 treble 
V:3 bass 
V:4 bass 
V:6 bass 
V:7 bass 
V:1
 A8 | A4 A4 | G4 B4 | A4 c4 | =B4 _B4 | A8 | z4 F4 | G6 A2 | B2 c2 d4- | d2 c2 c2 BA | B4 A4- | %11
 A2 B2 c4- | c2 B2 c2 A2 | B2 c2 d4 | c6 c2 | d6 e2 | f8- | f4 f4 | _e4 c4 | d8 | z8 | z8 | z8 | %23
 z4 A4 | A4 A4 | G4 B4 | A4 c4 | =B4 _B4 | A6 B2 | c2 d2 e2 f2 | g2 fe d2 e2 | f4[Q:1/4=112] e4- | %32
[Q:1/4=111]"^.9" e2[Q:1/4=111]"^.8" d2[Q:1/4=111]"^.7" d4-[Q:1/4=111]"^.4" | %33
[Q:1/4=111] d2[Q:1/4=110]"^.5" ^c[Q:1/4=110]"^.1"=B[Q:1/4=109]"^.8" Tc3[Q:1/4=108]"^.5" B/[Q:1/4=108]"^.3"c/ | %34
[Q:1/4=108] d4[Q:1/4=109]"^.3" A4[Q:1/4=111] |[Q:1/4=116] A4 A4 | G4 B4 | A4 c4 | =B4 _B4 | %39
 A4 z2 c2 | A2 B2 c2 BA | B2 c2 d2 cB | c2 d2 e2 dc | d2 D2- DEFG | A8 | z8 | z8 | z8 | z8 | d8 | %50
 d4 d4 | c4 _e4 | d4 f4 | e4 _e4 | d8- | d8 | z8 | z8 | z4 d4 | G4 c4 | =B4 _B4 | A8 | z8 | z8 | %64
 z8 | z8 |[Q:1/4=116] z8[Q:1/4=113][Q:1/4=114]"^.7"[Q:1/4=114]"^.2"[Q:1/4=112]"^.8" | %67
[Q:1/4=112] z2 e2 e4 | e4 d4 | f4 e4 | g8 | ^f4 =f4 | e8 | z8 | z8 | z8 | z8[Q:1/4=116] | %77
 z2 e2 e4 | e4 d4 | f4 e4 | g8 | ^f4 =f4 | e8- | e8 | A8 | z4 d4 | d2 d2 c2 d2 | e8 | d6 e2 | %89
 f4 A4- | A4 A4 | A4 G4 | B4 A4 | c8 | =B4 _B4 | A4 d4 | d4 d4 | c4 _e4 | d4 f4 | e4 _e4 | d8 | %101
 z2 B2 B2 B2 | A4 c4 | B4 d4 | c6 d2 | e2 f2 g4 | f8 | f4 f4 | _e4 c4 | d8 | z2 G2 G2 G2 | F4 A4 | %112
 G3 A B4 | A4 d4- | d2 c2 B2 A2 | G2 AB c2 B2 | A8 | z4 A4 | A6 A2 |[Q:1/4=116] B4 G4[Q:1/4=115] | %120
[Q:1/4=115]"^.7" A4-[Q:1/4=115][Q:1/4=115][Q:1/4=115]"^.1" A[Q:1/4=114]"^.9"B[Q:1/4=114]"^.7"c[Q:1/4=114]"^.4"A | %121
[Q:1/4=114]"^.1" d4[Q:1/4=112]"^.6" d4-[Q:1/4=111][Q:1/4=113]"^.4"[Q:1/4=113] | %122
[Q:1/4=110]"^.4" d2[Q:1/4=109]"^.1" ^c[Q:1/4=108]"^.4"d[Q:1/4=107]"^.6" c2[Q:1/4=105]"^.9" =B2 | %123
[Q:1/4=104] ^c4 z2[Q:1/4=124] A2 | A4 A4 | G4 B4 | A4 c4 | =B4 _B4 | A8- | A8- | A8 | z2 A2 cBAG | %132
 FEDC DEFG | z2 d2 fedc | BAGF GABc | dcde f4 | z8 | z8 | z2 A2 dcBA | GFED _EFGA | B2 AG A2 d2 | %141
 d4 d4 | c4 _e4 | d4 f4 | e4 _e4 | d4 d2 fe | dcBA GFGA | Bc d2 d2 gf | edcB AGAB | cd e2 e2 ag | %150
 fedc BABc | dcde f2 BA |[Q:1/4=124] GFED EFG[Q:1/4=123]"^.9"A | %153
 =B2[Q:1/4=123]"^.8" c4[Q:1/4=123][Q:1/4=123][Q:1/4=123]"^.5" _B2[Q:1/4=123] | %154
[Q:1/4=123]"^.2" c4[Q:1/4=122][Q:1/4=122][Q:1/4=122]"^.3" c2[Q:1/4=122][Q:1/4=121]"^.7" c2[Q:1/4=121] | %155
[Q:1/4=121] B[Q:1/4=120]"^.6"A[Q:1/4=120]"^.1"B[Q:1/4=119]"^.6"c[Q:1/4=119] d4[Q:1/4=118][Q:1/4=117][Q:1/4=117] | %156
[Q:1/4=116]"^.3" ^c/[Q:1/4=115]"^.9"d/[Q:1/4=115]"^.5"e/[Q:1/4=115]d/[Q:1/4=114]"^.6" c/[Q:1/4=114]"^.1"d/[Q:1/4=113]"^.7"=B/[Q:1/4=113]"^.2"c/[Q:1/4=112]"^.7" Tc3[Q:1/4=109]"^.3" B/[Q:1/4=108]"^.6"c/ | %157
[Q:1/4=108] d4- d/c/4B/4A/4G/4F/4E/4 D/4C/4D/4E/4F/4G/4A/4B/4 |[Q:1/4=120] A8 | A8 | A8 | G8 | B8 | %163
 A8 | c8 | =B8 | _B8 | A8- | A8 | z2 z A/B/ cG BF/G/ | A2 G2 F2 D2 | CD/E/ F/G/A/B/ c2 A2 | %172
 GA/G/ F2- FG/F/ E/F/G/E/ | Fc/B/ A/G/F/E/ F/G/A/B/ cA/G/ | F/E/D/C/ D/E/F/G/ AG/F/ E/F/G/E/ | %175
 F/G/A/B/ A/B/c/d/ c/B/A/G/ ^F/E/G/F/ | Gg/f/ e/d/c/=B/ c/d/e/f/ gf/e/ | %177
 d/c/B/A/ B/c/d/e/ f/d/e/f/ g/4f/4e/4d/4c/4B/4A/4G/4 | c/B/A/G/ F/E/D/C/ D/E/F/G/ AG/F/ | %179
 EF/G/ A/B/c/d/ e/f/g/e/ a/g/a/4g/4f/4e/4 | d/c/=B/A/ G/A/B/c/ d/d/d/d/ d/d/d/d/ | %181
 de/f/ g/d/B/G/ d/B/G/D/ f/d/B/F/ | a/f/c/A/ e/c/A/E/ f/d/A/F/ d/A/F/D/ | %183
[Q:1/4=120] ^c4[Q:1/4=119]"^.2" A4-[Q:1/4=119]"^.9"[Q:1/4=119]"^.8"[Q:1/4=119]"^.7"[Q:1/4=119]"^.5"[Q:1/4=118]"^.3"[Q:1/4=117]"^.7"[Q:1/4=116]"^.9"[Q:1/4=115]"^.9"[Q:1/4=114]"^.8"[Q:1/4=113]"^.5" | %184
[Q:1/4=112] A2 =B2 ^c2 d2 | e2 d4 c2 | d4 A4- | A2 B2 c2 d2 | e4 c4- | c4 B4 | A2 d4 e2 | %191
 f2 g2 a2 g/f/e/d/ | (3^c=Bc (3dcd (3ede (3fef | (3^cBc (3dcd (3ede (3fef | e2 d2 ^c d2 c | %195
 d4 z gfe | d4 z fed | c4 z agf | e4 z gfe | g2 fe d4 | z fdB f2 ed | c4 z ecA | a2 gf e4 | %203
 g2 d2 f2 ed | c2 d2 =B2 c2- | c2 =B2 d4 | z8 | z4 z fdA | d2 cB Aafd | f2 d2 ^c2 d2 | %210
 e2 f2 d2 e2 | c2 d2 e2 f2 | z8 | %213
"^(poco meno mosso)"[Q:1/4=108] z[Q:1/4=107]"^.7" c[Q:1/4=107]"^.4"A[Q:1/4=107]"^.2"F[Q:1/4=107] f2[Q:1/4=106]"^.7" e[Q:1/4=106]"^.5"d[Q:1/4=106]"^.8" | %214
[Q:1/4=106]"^.3" c4[Q:1/4=105]"^.7" z[Q:1/4=105]"^.5" c[Q:1/4=105]"^.4"A[Q:1/4=105]"^.2"F[Q:1/4=106][Q:1/4=105]"^.8" | %215
[Q:1/4=105]"^.1" f2[Q:1/4=104]"^.8" e[Q:1/4=104]"^.7"d[Q:1/4=104]"^.5" c3[Q:1/4=104][Q:1/4=104]"^.1" B[Q:1/4=105][Q:1/4=104]"^.4" | %216
[Q:1/4=104] !fermata!A4[Q:1/4=208]"^[Ed: doppio movimento]" z4 | z8 | z8 | z8 | z8 | z8 | e8 | e8 | %224
 e8 | d8 | f8 | e8 | g8 | ^f8 | =f8 | %231
[Q:1/4=208] e8-[Q:1/4=204][Q:1/4=201][Q:1/4=198][Q:1/4=196][Q:1/4=194][Q:1/4=192][Q:1/4=184][Q:1/4=189]"^.9"[Q:1/4=187]"^.9"[Q:1/4=185]"^.9"[Q:1/4=182]"^.1" | %232
[Q:1/4=180]"^.3" e8[Q:1/4=178][Q:1/4=176][Q:1/4=174][Q:1/4=173][Q:1/4=171][Q:1/4=169][Q:1/4=166][Q:1/4=163] | %233
[Q:1/4=160] z4[Q:1/4=80]"^[Ed: a tempo]" e4 | e2 e2 d2 f2 | e2 g2 ^f2 =f2 | e2 d2 d2 d2 | %237
 c2 _e2 d2 f2 | e2 _e2 d2 A2 | A2 A2 G2 B2 | A2 c2 =B2 _B2 | A4 D/E/F/G/ A/B/c/A/ | %242
 B/c/d/e/ f/g/a/f/ g/f/d/e/ fe/d/ | c/B/A/G/ A/_B/c/d/ e/f/g d/c/d/e/ | f/g/a ef gf/e/ de | %245
 fe/d/ c=B/A/ B/A/G/A/ B/A/B/c/ | d/e/f/e/ d/c/A/=B/ c/d/e/f/ e/d/B/c/ | %247
 d/e/^f/g/ a/g/=f/a/ g/f/e/g/ fe | dA F/G/A/B/ cB/A/ G/A/B/c/ | d/e/f/g/ aA/B/ c/d/e/f/ gG/A/ | %250
 B/c/d/e/[Q:1/4=80] f2[Q:1/4=80]"^.8" ^f2[Q:1/4=81]"^.4" g2[Q:1/4=81]"^.1"[Q:1/4=81]"^.6" | %251
[Q:1/4=81]"^.9" ^f2[Q:1/4=82]"^.4" g2[Q:1/4=82]"^.8" f2[Q:1/4=83]"^.3" A2[Q:1/4=82]"^.1"[Q:1/4=82]"^.6" | %252
[Q:1/4=83]"^.7" A[Q:1/4=83]"^.9"A[Q:1/4=84]"^.1"G[Q:1/4=84]"^.3"B[Q:1/4=84]"^.5" A[Q:1/4=84]"^.7"c[Q:1/4=84]"^.9"=B[Q:1/4=85]"^.1"_B | %253
[Q:1/4=85]"^.3" A8[Q:1/4=85][Q:1/4=86][Q:1/4=86][Q:1/4=86][Q:1/4=86] | %254
[Q:1/4=86]"^.8" z4[Q:1/4=86][Q:1/4=87][Q:1/4=87][Q:1/4=87]"^.5" z2[Q:1/4=87]"^.8" e2 | %255
[Q:1/4=88]"^.1" e[Q:1/4=88]"^.3"e[Q:1/4=88]"^.5"d[Q:1/4=88]"^.6"f[Q:1/4=88]"^.8" e[Q:1/4=89]g[Q:1/4=89]"^.1"^f[Q:1/4=89]"^.3"=f | %256
[Q:1/4=89]"^.5" e8[Q:1/4=89][Q:1/4=90][Q:1/4=90][Q:1/4=90]"^.3"[Q:1/4=90]"^.6" | %257
[Q:1/4=90]"^.8" z4[Q:1/4=91][Q:1/4=91]"^.4" e4[Q:1/4=91][Q:1/4=91][Q:1/4=91][Q:1/4=91][Q:1/4=91][Q:1/4=90]"^.9"[Q:1/4=91]"^.2" | %258
[Q:1/4=92] e2 e2 =f2 d2 | d2 d2 c2 _e2 | d2 f2 =e2 _e2 | %261
[Q:1/4=92] d8[Q:1/4=92][Q:1/4=92][Q:1/4=93][Q:1/4=93]"^.1"[Q:1/4=93]"^.3" | %262
[Q:1/4=93]"^.4" z8[Q:1/4=93]"^.5"[Q:1/4=93]"^.7"[Q:1/4=93]"^.8"[Q:1/4=93]"^.9"[Q:1/4=94]"^.1"[Q:1/4=94]"^.2" | %263
[Q:1/4=94]"^.4" z4[Q:1/4=94]"^.9" z2[Q:1/4=95]"^.1" g2[Q:1/4=94]"^.7" | %264
[Q:1/4=95]"^.4" ^f2[Q:1/4=95]"^.6" =f2[Q:1/4=95]"^.8" e4[Q:1/4=95][Q:1/4=96] | %265
[Q:1/4=96]"^.2" d4[Q:1/4=96][Q:1/4=96][Q:1/4=96]"^.6" z2[Q:1/4=96]"^.8" d2 | %266
[Q:1/4=97] ^c2[Q:1/4=97]"^.2" =c2[Q:1/4=97]"^.4" =B2[Q:1/4=97]"^.6" _B2[Q:1/4=97]"^.5"[Q:1/4=97]"^.7" | %267
[Q:1/4=97]"^.8" A4[Q:1/4=98][Q:1/4=98]"^.2" z2[Q:1/4=98]"^.4" d2[Q:1/4=97]"^.9"[Q:1/4=98]"^.1"[Q:1/4=98]"^.3" | %268
[Q:1/4=98]"^.6" d2[Q:1/4=98]"^.7" d2[Q:1/4=98]"^.9" c2[Q:1/4=99]"^.1" _e2 | %269
[Q:1/4=99]"^.3" d2[Q:1/4=99]"^.5" g2[Q:1/4=99]"^.7" ^f2[Q:1/4=99]"^.8" =f2 | %270
[Q:1/4=100] e4[Q:1/4=100]"^.4" z4[Q:1/4=100][Q:1/4=100]"^.2"[Q:1/4=100]"^.6" | %271
[Q:1/4=100]"^.7" z8[Q:1/4=100][Q:1/4=101][Q:1/4=101]"^.2" | %272
[Q:1/4=101]"^.4" z4[Q:1/4=101][Q:1/4=101]"^.7" z2[Q:1/4=101]"^.9" e2 | %273
[Q:1/4=102]"^.1" e2[Q:1/4=102]"^.2" e2[Q:1/4=102]"^.4" d4[Q:1/4=102]"^.5" | %274
[Q:1/4=102]"^.7" f4[Q:1/4=103] e4[Q:1/4=103][Q:1/4=102]"^.9"[Q:1/4=103]"^.3" | %275
[Q:1/4=103]"^.4" z2[Q:1/4=103]"^.5" g2[Q:1/4=103]"^.7" ^f2[Q:1/4=103]"^.8" =f2[Q:1/4=103]"^.9" | %276
[Q:1/4=104] e4 z4 | (3:2:6D/C/B,/C/D/E/ (3:2:6F/E/F/D/E/F/ (6:4:6E/D/C/D/E/F/ (6:4:6G/F/G/A/B/c/ | %278
 (3:2:6d/c/B/A/G/F/ (3:2:6B/A/G/F/E/D/ (6:4:6E/F/G/F/E/D/ TE3/2D/4E/4 | z2 c2 c2 c2 | B2 d2 c2 f2 | %281
 d2 d2 c2 f2 | f2 f2 e2 g2 | f2 a2 g2 g2 | f8 | f8 | z4 z2 d/B/c/B/ | %287
 d/A/B/A/ d/G/A/G/ ^c/A/c/A/ e/A/e/A/ | d/A/d/A/ f/A/f/A/ e/A/E/A/ E/e/A/e/ | %289
[Q:1/4=104] d[Q:1/4=102]"^.4"c/[Q:1/4=101]"^.8"B/[Q:1/4=101]"^.2" A/[Q:1/4=100]"^.7"G/[Q:1/4=100]"^.1"^F/[Q:1/4=99]"^.6"E/[Q:1/4=99]"^.1" A4[Q:1/4=98][Q:1/4=97][Q:1/4=97][Q:1/4=96][Q:1/4=96][Q:1/4=96] | %290
[Q:1/4=92] B8 | c8 | d8 | e4 A4 | A4 A4 | G4 B4 | A4 c4 | =B4 _B4 | A8 | A8 | A8 | %301
[Q:1/4=92] z2[Q:1/4=89]"^.8" e2[Q:1/4=88]"^.2" e2[Q:1/4=86]"^.7" e2[Q:1/4=89] | %302
[Q:1/4=85]"^.4" d2[Q:1/4=84]"^.1" A2[Q:1/4=82]"^.9" d4-[Q:1/4=82]"^.6"[Q:1/4=82]"^.4"[Q:1/4=82]"^.3"[Q:1/4=82]"^.2"[Q:1/4=82][Q:1/4=81]"^.9"[Q:1/4=81]"^.7"[Q:1/4=81]"^.6"[Q:1/4=81]"^.4"[Q:1/4=81]"^.3"[Q:1/4=81]"^.1"[Q:1/4=81][Q:1/4=80]"^.8"[Q:1/4=80]"^.7" | %303
[Q:1/4=80]"^.6" d[Q:1/4=80]^c/=B/ A/B/c/!fermata!d/ c/4d/4e/4f/4[Q:1/4=80]g/4[Q:1/4=78]"^.9"f/4[Q:1/4=78]"^.1"e/4[Q:1/4=77]"^.3"f/4[Q:1/4=76]"^.7" g/4[Q:1/4=76]f/4[Q:1/4=75]"^.4"e/4[Q:1/4=74]"^.8"d/4[Q:1/4=74]"^.2"e/4[Q:1/4=73]"^.6"d/4[Q:1/4=73]"^.1"c/4[Q:1/4=72]"^.5"B/4 | %304
[Q:1/4=72] !fermata![Ac]8 |] %305
V:2
 z8 | z8 | z8 | z8 | z8 | D8 | D4 D4 | C4 _E4 | D4 F4 | E4 _E4 | D6 E2 | F4 E2 D2 | E4 C4 | D6 E2 | %14
 F2 G2 A4- | A4 G4 | A4 D2 E2 | F2 G2 A2 =B2 | c2 BA G4 | F6 A2 | G4 G4- | G2 F2 F2 ED | E4 E4 | %23
 D2 E2 F4- | F4 E4- | E4 D2 E2 | F2 G2 A4 | D4 G4 | F4 E4 | z4 c4 | B2 AG F2 G2 | A4 G4- | G4 G4 | %33
 A8- | A4 z2"^.7" F2 | D2 E2 F2 ED | E2 F2 G2 FE | F2 G2 A2 GF | G2 G,2- G,A,B,C | DCDE F2 ED | %40
 E4 C4 | D6 D2 | F4 E4 | G4 F2 D2 | C2 DE F4 | D2 E2 F2 ED | E2 F2 G4- | G2 F2- FGAF | G4 G4- | %49
 G2 ^FE (3FGA (3DEF | G3 A B2 AG | A2 B2 c2 BA | B2 c2 d2 cB | c2 C2- CD_EF | GFGA B2 cB | A8 | %56
 G8 | z8 | z8 | z8 | z2 G2 D2 E2 | F6 ED | E2 F2 G2 FE | F2 G2 A2 GF | G2 A2 B2 AG | A3 A GAFG | %66
 E4"^.7" A4 | A4 A4 | G4 B4 | A4 c4 | =B4 _B4 | A8 | z8 | x8 | x8 | x8 | z4 z2 A2 | A4 A4 | G4 B4 | %79
 A4 c4 | =B4 _B4 | A8 | G8 | G4 G4 | F4 C3 D | EF G4 D2 | z2 A2 A2 A2 | G2 E2 A4- | A2 GF G4 | %89
 A2 G2 F2 E2 | D2 E2 F2 D2 | E2 F2 G4 | F8 | G6 G2 | ^F4 G4- | G2 ^FE F4 | G6 F2 | _E2 D2 C4 | %98
 F4- FG A2 | G8 | G8 | z8 | z2 F2 F2 F2 | G4 F2 G2 | A2 B2 c4- | c4 c4- | c2 =Bc B2 A2 | %107
 =B2 c4 B2 | c2 _B2 A2 G2 | F2 E2 D4- | D4 C4 | D4 F4 | E4 D2 G2- | G2 ^FE F4 | G6 F2 | %115
 E2 D2 C2 DE | F4 E2 D2 | E4 F4 | E6 ^F2 | G2 =F2 E2"^.9" D2 | F2"^.5" E"^.3"D E4 | D6"^.6" E2 | %122
 F2 EF E2 D2 | E8 | x8 | x8 |[I:staff +1] D[I:staff -1]EFG A2 EF | G2 D4 E2 | %128
 F2 ED EDC[I:staff +1]B, | x8 | x8 | x8 | x8 | x8 |[I:staff -1] G2 x2 x4 | A4 x4 | z4 z2 D2 | %137
 GFED CB,A,G, | A,2 FE D4- | D4 C4 | D8 | z8 | z8 | z2 B2 dcBA | GFED _EFGA | B8 | z4 D4 | %147
 G3 A =B2 B2 | c2 z2 z2 E2 | A3 B c2 c2 | F8 | z2 B2 dcGF | EDC=B, CDEF | %153
 G2 FE"^.7"[I:staff +1] D"^.6"CD"^.4"E |[I:staff -1] A2"^.8" G"^.6"F E"^.1"DE"^.4"F | %155
 G4 F"^.4"E"^.8"FG | A8 | A4- A/ x/ x x2 | z DF[I:staff +1]C[I:staff -1] x4 | x8 | x8 | x8 | x8 | %163
 x8 | x8 | x8 | x8 | x8 | x4 z2 z F/G/ | AE F2 E2 D2 | x8 | x8 | x8 | x8 | x8 | x8 | x8 | x8 | x8 | %179
 x8 | x8 | x8 | x8 | E8 | E8 | E8 | D8 | F8 | E8 | G8 | ^F8 | =F8 | E4 A4 | (3EDE (3FEF A4 | %194
 =c2 A2 A4 | B8 | z GFE D4 | z FED C4 | z AGF E4 | z GDG, G2 FE | D2 z F DB, F2- | F2 ED C4 | %202
 z ECA, A2 GF | E2 G2 D2 E2 | F4 D2 E2 | F2 D2 E2 F2 | E2 F2 EDB,G, | G2 FE D4- | D2 E2 F4- | %209
 F2 G2 E2[I:staff +1] D2 |[I:staff -1] A4 G4 | F4 z cAF | c2 BA G/A/B/A/ G/F/G | F4 A4- | A6 z2 | %215
 A4 A2"^.3" GF | E4 z4 | z4 (3A2 c2 B2 | (3:2:2A4 G2 F4- | F8 | (3A2 c2 B2 (3:2:2A4 G2 | A4 z4 | %222
 (3A2 c2 B2 (3:2:2A4 G2 | A4 z4 | (3A2 c2 B2 (3:2:2A4 G2 | A4 z4 | (3B2 d2 c2 (3:2:2B4 A2 | G4 z4 | %228
 (3c2 e2 d2 (3:2:2c4 =B2 | A4 A4 | (3A2 d2 c2 (3:2:2=B4 A2 | %231
 (6:4:6^G"^.1"A"^.3"=B"^.8"G"^.4"A"^.2"c (3:2:2B4 A2 | %232
 (6:4:6^G"^.5"A"^.7"=B"^.9"G"^.2"A"^.5"c"^.8" (3B2"^.5" A2"^.2" G2 | A4 z2 A,/B,/C/D/ | %234
 E/F/G C/D/E/F/ G/A/B D/E/F/G/ | A/B/c E/F/G/A/ =B/c/d D/E/F/G/ | %236
 TG3/2^F/4E/4 TF3/2E/4F/4 GB/A/ G/=F/G/F/ | %237
 _E/D/C/=B,/ C/D/E/F/ G/[I:staff +1]G,/_B,/C/ D/D,/F,/G,/ | x8 | x8 | x8 | x8 | %242
[I:staff -1] G/A/B/G/ A/B/c/A/ B/A/F/G/ AG/F/ | E/D/C/=B,/ C/D/E/F/ G/A/_B F/E/F/G/ | %244
 A/B/c GF/E/ DE FE/D/ | CDEF G/F/E/F/ G/F/G/E/ | F/G/A/G/ F/E/C/D/ E/F/G/A/ G/F/D/E/ | %247
 ^F/G/A/=B/ cd- d^c d=c/_B/ | A/G/F/E/ D/E/F/D/ _ED/C/[I:staff +1] B,/A,/G,/A,/ | x8 | %250
[I:staff -1] D/E/F/G/ A2 D4 | z4 D4 | D8 | z2"^.7" E2 E"^.2"E"^.4"D"^.6"F | %254
 E"^.9"G"^.1"^F"^.3"=F E4 | A8 | z2"^.8" ^G2"^.1" G2"^.4" A2 | %257
 ^G2"^.1" A2- A"^.5"G/"^.6"^F/"^.7" G/"^.8"A/=B/"^.9"G/ | A4 z2 =F2 | DEFG ABcG | Bc d4 c2 | %261
 =B2"^.5" _B2"^.8" A4 | x8 | z8 | z2 A2- A"^.9"E G2- | G"^.3"D"^.4" G2 ^F2 =F2 | E2 _E2 D4 | %267
 z2 B2 A2 A2 | G2 B2 A2 c2 | =B2 _B2 A4 | c4 B2"^.5" G2 | A2"^.9" G2 z4 | z2"^.6" A2 A2 A2 | %273
 G4 B4 | A4 z2"^.2" c2 | =B2 _B2 A4 | c3 B/A/ (6:4:6G/F/E/D/C/D/ (6:4:6E/D/E/C/D/E/ | x8 | x8 | %279
 F/G/A/B/ c/F/A/G/ F4 | F8 | F4 A4 | _B2 A2 G4 | A2 c2 c4 | z2 B2 B2 B2 | A2 c2 B2 d2 | %286
 c2 c2 B2 F2 | F2[I:staff +1] D2 E2 ^C2 | D2 D2 A,4 | %289
[I:staff -1] ^F x x2 F"^.2"G/"^.7"F/"^.3" G/"^.9"F/"^.4"E/F/ | G2 D4 F2- | F2 E4 G2- | G2 ^F2 G4 | %293
 C2 D2 E2 C2 | F2 E2 D2 C2 | B,2 _E4 D2 | C2 F4 E2 | D2 G4 F2 | E4 E4 | !fermata!E4 E4 | D4 F4 | %301
 E6 G2 | ^F4 =F4 | E x x2 x4 | E8 |] %305
V:3
 z8 | z8 | z8 | z8 | z8 | z8 | z8 | z8 | z8 | z8 | z8 | A,8 | A,4 A,4 | G,4 B,4 | A,4 C4 | %15
 =B,4 _B,4 | A,8 | z4 F,4 | G,6 A,2 | B,2 C2 D4- | D2 C2 C2 B,A, | B,4 A,4- | A,2 G,F, G,2 A,2 | %23
 B,2 C2 D4- | D4 C4- | C4 B,2 C2 | D2 CB, A,2 F,2 | G,2 A,2 B,2 C2 | D4 C2 D2 | E2 F2 E2 C2 | D8 | %31
 C2 D2[K:treble] E2 F2 | G2 FE D2 E2 | F2 ED E4 |[K:bass] D8 | z8 | z8 | z8 | z8 | z4 A,4 | %40
 A,4 A,4 | G,4 B,4 | A,4 C4 | =B,4 _B,4 | A,4 z2 A,2 | F,2 G,2 A,2 G,F, | G,6 A,2 | %47
 B,2 A,G, A,2 D2- | D2 CB, C2 G,2 | B,2 A,G, A,4 | G,A,B,C DCDE | F2 ED C4 | G2 FE D4 | z8 | z8 | %55
 D8 | D4 D4 | C4 _E4 | D4 F4 | E4 _E4 | D4 z4 | z2 D2 A,2 B,2 | C2 B,A, B,2 C2 | D2 CB, C2 D2 | %64
 E2 DC D2 E2 | F4 E2 D2- | D2 ^CD C2 =B,2 | ^C8 | z8 | z8 | z8 | z8 | z2 E2 E4 | E4 D4 | F4 E4 | %75
 G8 | ^F4 =F4 | E4 C2 D2 | E2 F2 G4 | F2 G2 A2 E2- | E2 D4 E2 |[K:bass] ^C4 D4- | D4 ^C2 =B,2 | %83
 ^C2 D4 C2 | D2 A,2 A,2 A,2 | G,4 B,4 | A,8 | C8 | =B,4 _B,4 | A,6 G,2 | F,2 G,2 A,2 B,2 | %91
 C4 B,2 C2 | D4 C4- | C2 B,A, G,4 | D8 | z4 A,4 | D8 | G,6 A,2 | B,4 A,4 | =B,4 C4- | %100
 C2 =B,A, B,2 C2 | D4 z2 D2 | D2 D2 C4 | _E4 D4 | F8 | E4 _E4 | D8 | z4 D4 | G,8 | B,4 A,4 | G,8 | %111
 B,2 A,4 F,2 | C2 G,2- G,A,B,C | D6 C2 | B,2 A,2 G,2 A,B, | C2 B,2 A,2 G,2 | F,2 G,2 A,2 B,2 | %117
 C2 A,2 D4- | D2 ^C=B, C4 | D8 | C4 A,4- | A,2 G,F, G,4 | A,8- | A,8 | z2 D2 FEDC | %125
 B,A,G,F, G,A,B,C | z8 | z8 | z2 A,2 CB,A,G, | A,G,F,E, F,G,A,B, | CDEC F2 CD | E2 F2 E2 D2 | %132
 D2 F4 D2 | C2[I:staff -1] F2 AGFE | D[I:staff +1]CB,A, B,[I:staff -1]CDE | FEFG A4 | %136
[I:staff +1] FEDC B,A,G,F, | E,3 F, G,4 | F,4 F,4 | G,4 G,4- | G,2 ^F,E, F,4 | G,2 B,2 DCB,A, | %142
 G,6 C2 | B,8 | z8 | z2 D2 FEDC | B,A,G,F, G,A,B,C | D2 D2[I:staff -1] GFED | %148
[I:staff +1] CB,A,G, A,B,CD | E2 E2[I:staff -1] AGFE |[I:staff +1] DCB,A, B,CDE | F4 D2 x2 | C8 | %153
 G,4 G,2 G,2 | F4 C4 | D8 | E8 | D8 | x4 DD,F,C, | %159
 D,[I:staff -1]D/E/ F/E/F/C/ D[I:staff +1]D,/E,/ F,/E,/F,/C,/ | %160
 D,[I:staff -1]D/E/ F/E/F/C/ D[I:staff +1]A,/B,/ C/B,/C/F,/ | %161
 B,G,/A,/ B,/A,/B,/_E,/ G,C,/D,/ E,/D,/E,/C,/ | G,B,/C/ D/C/D/G,/ DB,,/C,/ D,/C,/D,/G,,/ | %163
 D,D,/E,/ F,/E,/F,/D,/ A,[I:staff -1]D/E/ F/E/F/D/ | %164
 AG/F/ E/D/C/[I:staff +1]B,/ A,/G,/F,/E,/ D,/C,/B,,/A,,/ | %165
 G,,A,,/=B,,/ C,/D,/E,/F,/ G,/A,/=B,/C/ D/G,/D/G,/ | %166
[I:staff -1] GF/E/ D/[I:staff +1]C/B,/A,/ G,/F,/E,/D,/ C,/B,,/A,,/G,,/ | %167
 D,E,/F,/ G,/A,/B,/[I:staff -1]C/ D/E/F/G/ A/D/A/D/ | FC D[I:staff +1]A,/B,/ CF, A,D,/E,/ | %169
 F,C, D,2 z E,/F,/ G,D, |[I:staff -1] C[I:staff +1]A,/B,/ CG, B, A,2 G, | A,4- A, x x2 | %172
 C2 A,B,/A,/ G,4 | A,8 | A,8 | A,8 | G,8 | B,8 | A,8 | C8 | =B,8 | _B,8 | A,8 | %183
 A,/E,/^C,/A,,/ A,/E,/C,/A,,/ A,G,/F,/ E,/D,/C,/=B,,/ | z4 E,4- | E,2 ^F,2 G,2 A,2 | %186
 =F,2 G,2 A,2 B,2 | C2 B,2 A,2 G,F, | G,4 G,4- | G,2 A,2 B,2 C2 | D8 | A,8 | %192
 z2 =B,2 (3^CB,C (3DCD | x4 (3^C=B,C (3DCD |[I:staff -1] (3EDE (3FEF ED E2 | %195
[I:staff +1] z[I:staff -1] GFE D4 |[I:staff +1] B,8 | A,8 | C8 | =B,8 | _B,8 | A,8- | A,8 | z8 | %204
 z A,F,D, G,2 F,E, | D,4 C,CA,F, | C2 B,A, G,4 | z G, A,2 B,4- | B,2 C2 D4 | z DB,G, A,4 | %210
 ^C2 D2 =B,2 =C2 | A,2 B,2 G,2 D2 | G,2 A,2 B,2 C2 | A,4 z CA,F, | F2 ED C4 | z CA,F, F2 ED | %216
 ^C4 (3E2 G2 F2 | (3:2:2E4 D2 C4 | (3D2 F2 E2 (3:2:2D4 C2 | (3:2:2B,4 A,2 (3:2:2D4 B,2 | A,4 z4 | %221
 (3C2 E2 D2 (3:2:2C4 =B,2 | C4 z4 | (3C2 E2 D2 (3:2:2C4 =B,2 | C4 z4 | (3F2 A2 G2 (3:2:2F4 E2 | %226
 D4 z4 | (3E2 G2 F2 (3:2:2E4 D2 | E8 | (3^F2 A2 G2 (3:2:2F4 E2 | D4 (3D,2 D2 C2 | %231
 (3:2:2=B,4 A,2 (6:4:6^G,A,B,G,A,C | (3:2:2=B,4 A,2 (3^G,2 A,2 B,2 | A,4 z4 | x8 | x8 | x8 | x8 | %238
 A,/B,/C/C,/ _E,/F,/G,/A,/ B,/C/D/D,/ F,/G,/A,/B,/ | %239
 C/F,/F,/4G,/4A,/4B,/4 C/A,/A,/4B,/4C/4[I:staff -1]D/4 E/C/C/4D/4E/4F/4 G/[I:staff +1]G,/G,/4A,/4B,/4C/4 | %240
 D/D,/D,/4E,/4F,/4G,/4 A,/A,,/A,,/4B,,/4C,/4D,/4 E,/G,/G,/4A,/4=B,/4C/4 D/G,,/G,,/4A,,/4_B,,/4C,/4 | %241
 D,/E,/F,/G,/ A,/B,/C/A,/ B,/[I:staff -1]C/D/E/ F/G/A/F/ |[I:staff +1] z4 z2 A,2 | %243
 A,2 A,2 G,2 B,2 | A,2 C2 =B,2 _B,2 | A,2 E,2 E,2 E,2 | D,2 F,2 E,2 G,2 | ^F,2 =F,2 E,2 D,2 | %248
 D,2 D,2 C,2 _E,2 | B,/C/D A,/B,/[I:staff -1]C/D/ E/F/G[I:staff +1] G,/A,/B,/C/ | z2 A,2 A,A,G,B, | %251
 A,C=B,_B, A,2 ^F,2 | ^F,2 G,2 F,2 G,2 | ^F,2 A,2 z2 A,2 | A,4 ^C4 | ^C2 D2 C2 D2 | %256
 ^C2 =B,2 B,B,A,=C | =B,D^C=C B,4 | z8 | z8 | z8 | z2 D2 D2 D2 | C2 _E2 D2 F2 | =E2 _E2 D4 | %264
 z2 D2 ^C2 =C2 | =B,2 _B,2 A,4- | A,2 G,4 G,2 | F,G,A,B, CB, A,2 | B,4 z4 |[K:treble] z8 | %270
 z4 D2 DD | C2 _E2 D2 G2 | ^F2 =F2 E4 | z2 E2 G2 F2- | F2 A4 G2- | GF/E/[K:bass] D2- DC/B,/ A,D | %276
 G,2 A,2 E,2 G,2 | G,2 F,2 A,2 G,2 | A,2 F,2 G,4 | A,4 x4 | %280
 D,/C,/B,,/A,,/ B,,/C,/D,/E,/ F,/G,/A,/B,/ A,/F,/G,/A,/ | %281
 B,/F,,/G,,/A,,/ B,,/C,/D,/E,/ F,/C/=B,/C/ F,/C/B,/C/ | %282
 D,/D/C/D/ F,/C/=B,/C/ A,,/C/B,/C/ E,/C/B,/C/ | %283
 F,/C/=B,/C/ F,/[I:staff -1]F/E/F/ C/F/E/F/ C/E/D/E/ |[I:staff +1][K:treble] FEDC D/E/F/E/ D/C/D | %285
[K:bass] C2- C/B,/A,/G,/ F,2 B,2- | B,A,/G,/ A,/B,/G,/A,/ B,/C/[I:staff -1]D/E/[I:staff +1] x2 | %287
 D2 B,2 A,2 A,2 | F,2 D,2 ^C,4 | A,4 A,4 | G,4 B,4 | A,4 C4 | =B,4 _B,4 | A,8 | z4 F,4 | %295
 G,3 F, G,2 G,2 | A,3 G, A,2 A,2 | =B,3 C D2 D2- | D2 ^CD C2 =B,2 | ^C3 =B,/C/ TC3 B,/C/ | %300
 D4 z A,F,G, | A,8 | A,8 | A,8 | A,8 |] %305
V:4
 x8 | x8 | x8 | x8 | x8 | x8 | x8 | x8 | x8 | x8 | x8 | z8 | z8 | z8 | z8 | z8 | D,8 | D,4 D,4 | %18
 C,4 _E,4 | D,4 F,4 | E,4 _E,4 | D,8 | z4 C,4 | D,6 E,2 | F,2 G,2 A,2 G,F, | E,2 F,2 G,4 | F,8 | %27
 z8 | z4 A,4 | A,4 A,4 | G,4 B,4 | A,4[K:treble] C4 | =B,4 _B,4 | A,8 |[K:bass] D,8 | x8 | x8 | %37
 x8 | x8 | z8 | z8 | z8 | z8 | z8 | z4 D,4 | D,4 D,4 | C,4 _E,4 | D,4 F,4 | E,4 _E,4 | D,8 | z8 | %51
 z8 | z8 | z8 | z4 G,4- | G,2 ^F,E, (3F,G,A, (3D,E,F, | G,3 A, B,2 A,G, | A,2 B,2 C2 B,A, | %58
 B,2 C2 D2 CB, | C2 C,2- C,D,_E,F, | G,4 z2 G,2 | D,6 D,2 | A,4 G,4 | B,4 D,4 | C4 E,4 | %65
 D2 A,2 C2 D2 | A,8- | A,8 | x8 | x8 | x8 | z4 A,4 | A,4 A,4 | G,4 B,4 | A,4 C4 | =B,4 _B,4 | %76
 A,8- | A,8 | C4 B,2 C2 | D4 A,4 | G,4 G,4 |[K:bass] A,8 | z4 E,4 | E,4 E,4 | D,4 F,4 | E,4 G,4 | %86
 ^F,4 =F,4 | E,8 | z8 | D,8 | D,4 D,4 | C,4 _E,4 | D,4 F,4 | E,4 _E,4 | D,8 | D,6 C,2 | %96
 =B,,2 A,,2 B,,4 | C,8 | D,8 | G,8 | z4 G,4 | G,4 G,4 | F,4 A,4 | G,4 B,4 | A,4 A,4 | G,8 | %106
 z4 D,4 | D,4 D,4 | C,4 _E,4 | D,4 F,4 | E,4 _E,4 | D,8 | z8 | z8 | z8 | z8 | z8 | A,,8 | %118
 A,,4 A,,4 | G,,4 B,,4 | A,,4 C,4 | =B,,4 _B,,4 | A,,8- | A,,8 | z8 | z8 | x8 | x8 | x8 | %129
 F,E,D,C, D,E,F,G, | A,B,CA, D2 A,B, | C2 D2 A,4 | B,8 | A,G,F,E, D,4 | G,8 | D,8 | D,4 D,4 | %137
 C,4 _E,4 | D,4 F,4 | E,4 _E,4 | D,8 | z2 G,2 B,A,G,F, | E,D,C,B,, C,D,_E,F, | G,3 F,/E,/ D,4 | %144
 G,2 C,2- C,D,_E,C, | B,,4 z4 | z8 | G,8 | A,8 | A,8 | B,8 | B,8 | x2 x2 x4 | x8 | F,4 A,4 | %155
 G,4 B,4 | A,8 | D,8 | x8 | x8 | x8 | x8 | x8 | x8 | x8 | x8 | x8 | x8 | x8 | x8 | %170
 F,2 E,2 D,2 B,,2 | F,4 C,D,/E,/ F,/G,/A,/B,/ | x8 | F,4 z2 F,2 | D,2 D,2 F,2 C,2 | %175
 D,2 C,B,, A,,B,,C,D, | =B,,2 C,2- C,D,E,F, | G,2 G,2 D,2 E,2 | F,2 D,2- D,E,F,G, | %179
 A,2 A,2 E,2 F,2 | z2 G,2 G,2 G,2 | z2 G,4 D,2 | F,2 E,2 D,4 | x8 | A,,6 =B,,2 | %185
 ^C,2 D,2 E,2 A,,2 | D,2 E,2 F,2 G,2 | A,2 G,2 F,2 E,D, | C,6 D,2 | E,2 F,2 G,4 | z4 D,4- | %191
 D,2 E,2 F,2 G,2 | A,8 | A,8 | A,8 | G,8 | x8 | x8 | x8 | x8 | x8 | x8 | x8 | x8 | x8 | x8 | x8 | %207
 x8 | x8 | x8 | z A,F,D, z G,E,C, | z F,D,B,, C,2 D,2 | E,2 F,4 E,2 | F,8 | z4 F,4- | %215
 F,4 z F, G,2 | !fermata!A,4 z4 | (3A,2 C2 B,2 (3:2:2A,4 G,2 | (3:2:2F,4 C,2 (3D,2 F,2 E,2 | %219
 (3:2:2E,4 C,2 (6:4:6B,,A,,B,,C,D,E, | F,4 z4 | (3A,2 C2 B,2 (3:2:2A,4 G,2 | A,4 z4 | %223
 (3A,2 C2 B,2 (3:2:2A,4 G,2 | A,4 z4 | (3D2 F2 E2 (3:2:2D4 C2 | B,4 z4 | (3C2 E2 D2 (3:2:2C4 =B,2 | %228
 C8 | D8 | x8 | E,8- | E,8 | A,,4 z4 | x8 | x8 | x8 | x8 | x8 | x8 | x8 | x8 | x8 | x8 | x8 | x8 | %246
 x8 | x8 | x8 | D,2 F,2 E,2 _E,2 | D,8- | D,8 | D,8- | D,2 A,,2 ^C,2 D,2 | ^C,2 D,2 A,4 | A,8- | %256
 A,2 E,2 E,4 | E,8 | ^C,4 D,4 | x8 | x8 | z2 G,2 D,E,F,G, | A,B,CG, B,C D2- | D2 C2 =B,2 _B,2 | %264
 A,4 A,2 E,2 | G,4 D,2 D,2 | A,,2 C,2 G,,A,,B,,C, | D,E,F,G, A,G, ^F,2 | G,4 z4 | %269
[K:treble] z4 z2 A,2 | A,2 A,2 G,2 B,2 | A,2 C2 =B,2 _B,2 | A,4 A,4 | C4 B,4 | D4 C3 B,/A,/ | %275
 G,4[K:bass] D,4 | C,4 C,2 C,2 | B,,2 D,2 C,2 _E,2 | D,2 D,2 C,4 | F,4 z/ F,/C/B,/ A,/G,/F,/E,/ | %280
 x8 | x8 | x8 | x8 |[K:treble] DCB,A, B,/C/D/C/ B,/A,/B, | %285
[K:bass] F,A,- A,/G,/F,/E,/ D,B,,- B,,/C,/D,/E,/ | F,4 z2 B,2 | x8 | x8 | D,8 | z8 | z8 | z8 | z8 | %294
 D,8 | _E,8 | F,8 | G,8 | A,8 | A,6 G,2 | F,2 E,2 D,4- | D,2 ^C,=B,, C,4 | %302
 D,4- D,/E,/4F,/4G,/4F,/4E,/4F,/4 G,/4F,/4E,/4D,/4E,/4D,/4^C,/4=B,,/4 | A,,8 | !fermata!A,,8 |] %305
V:5
 x8 | x8 | x8 | x8 | x8 | x8 | x8 | x8 | x8 | x8 | x8 | x8 | x8 | x8 | x8 | x8 | x8 | x8 | x8 | %19
 x8 | x8 | x8 | x8 | x8 | x8 | x8 | x8 | x8 | x8 | x8 | x8 | x8 | x8 | x8 | x8 | x8 | x8 | x8 | %38
 x8 | x8 | x8 | x8 | x8 | x8 | x8 | x8 | x8 | x8 | x8 | x8 | x8 | x8 | x8 | x8 | x8 | x8 | x8 | %57
 x8 | x8 | x8 | x8 | x8 | x8 | x8 | x8 | x8 | x8 | x8 | x8 | x8 | x8 | x8 | x8 | x8 | x8 | x8 | %76
 x8 | x8 | x8 | x8 | x8 | x8 | x8 | x8 | x8 | x8 | x8 | x8 | x8 | x8 | x8 | x8 | x8 | x8 | x8 | %95
 x8 | x8 | x8 | x8 | x8 | x8 | x8 | x8 | x8 | x8 | x8 | x8 | x8 | x8 | x8 | x8 | x8 | x8 | x8 | %114
 x8 | x8 | x8 | x8 | x8 | x8 | x8 | x8 | x8 | x8 | x8 | x8 | x8 | x8 | x8 | x8 | x8 | x8 | x8 | %133
 A4 x4 | x8 | x8 | x8 | x8 | x8 | x8 | x8 | x8 | x8 | x8 | x8 | x8 | x8 | x8 | x8 | x8 | x8 | %151
 x4 x2 d2 | g8 | z8 | x8 | x8 | x8 | x8 | x8 | x8 | x8 | x8 | x8 | x8 | x8 | x8 | x8 | x8 | x8 | %169
 x8 | x8 | x8 | x8 | x8 | x8 | x8 | x8 | x8 | x8 | x8 | x8 | x8 | x8 | x8 | x8 | x8 | x8 | x8 | %188
 x8 | x8 | x8 | x8 | x8 | x8 | x8 | x8 | x8 | x8 | x8 | x8 | x8 | x8 | x8 | x8 | x8 | x8 | x8 | %207
 x8 | x8 | x8 | x8 | x8 | x8 | x8 | x8 | x8 | x8 | x8 | x8 | x8 | x8 | x8 | x8 | x8 | x8 | x8 | %226
 x8 | x8 | x8 | x8 | x8 | x8 | x8 | x8 | x8 | x8 | x8 | x8 | x8 | x8 | x8 | x8 | x8 | x8 | x8 | %245
 x8 | x8 | x8 | x8 | x8 | x8 | x8 | x8 | x8 | x8 | x8 | x8 | x8 | x8 | x8 | x8 | x8 | x8 | x8 | %264
 x8 | x8 | x8 | x8 | x8 | x8 | x8 | x8 | x8 | x8 | x8 | x8 | x8 | x8 | x8 | x8 | x8 | x8 | x8 | %283
 x8 | x8 | x8 | x8 | x8 | x8 | x8 | x8 | x8 | x8 | x8 | x8 | x8 | x8 | x8 | x8 | x8 | x8 | x8 | %302
 x8 | x8 | !arpeggio!x8 |] %305
V:6
 x8 | x8 | x8 | x8 | x8 | x8 | x8 | x8 | x8 | x8 | x8 | x8 | x8 | x8 | x8 | x8 | x8 | x8 | x8 | %19
 x8 | x8 | x8 | x8 | x8 | x8 | x8 | x8 | x8 | x8 | x8 | x8 | x4[K:treble] x4 | x8 | x8 | %34
[K:bass] x8 | x8 | x8 | x8 | x8 | x8 | x8 | x8 | x8 | x8 | x8 | x8 | x8 | x8 | x8 | x8 | x8 | x8 | %52
 x8 | x8 | x8 | x8 | x8 | x8 | x8 | x8 | x8 | x8 | x8 | x8 | x8 | x8 | x8 | x8 | x8 | x8 | x8 | %71
 x8 | x8 | x8 | x8 | x8 | x8 | x8 | x8 | x8 | x8 |[K:bass] x8 | x8 | x8 | x8 | x8 | x8 | x8 | x8 | %89
 x8 | x8 | x8 | x8 | x8 | x8 | x8 | x8 | x8 | x8 | x8 | x8 | x8 | x8 | x8 | x8 | x8 | x8 | x8 | %108
 x8 | x8 | x8 | x8 | x8 | x8 | x8 | x8 | x8 | x8 | x8 | x8 | x8 | x8 | x8 | x8 | x8 | x8 | x8 | %127
 x8 | x8 | x8 | x8 | x8 | x8 | x8 | x8 | z4 z2 D2 | x8 | x8 | x8 | x8 | x8 | x8 | x8 | x8 | x8 | %145
 x8 | x8 | x8 | x8 | x8 | x8 | x8 | x8 | x8 | x8 | x8 | x8 | x8 | x8 | x8 | x8 | x8 | x8 | x8 | %164
 x8 | x8 | x8 | x8 | x8 | x8 | x8 | x8 | x8 | x8 | x8 | x8 | x8 | x8 | x8 | x8 | x8 | x8 | x8 | %183
 x8 | x8 | x8 | x8 | x8 | x8 | x8 | x8 | x8 | x8 | x8 | x8 | x8 | x8 | x8 | x8 | x8 | x8 | x8 | %202
 x8 | x8 | x8 | x8 | x8 | x8 | x8 | x8 | x8 | x8 | x8 | x8 | x8 | x8 | x8 | x8 | x8 | x8 | x8 | %221
 x8 | x8 | x8 | x8 | x8 | x8 | x8 | x8 | x8 | x8 | x8 | x8 | x8 | x8 | x8 | x8 | x8 | x8 | x8 | %240
 x8 | x8 | x8 | x8 | x8 | x8 | x8 | x8 | x8 | x8 | x8 | x8 | x8 | x8 | x8 | x8 | x8 | x8 | x8 | %259
 x8 | x8 | x8 | x8 | x8 | x8 | x8 | x8 | x8 | x8 |[K:treble] x8 | x8 | x8 | x8 | x8 | x8 | %275
 x2[K:bass] x6 | x8 | x8 | x8 | x8 | x8 | x8 | x8 | x8 |[K:treble] x8 |[K:bass] x8 | x8 | x8 | x8 | %289
 x8 | x8 | x8 | x8 | x8 | x8 | x8 | x8 | x8 | x8 | x8 | x8 | x8 | x8 | x8 | x8 |] %305
V:7
 x8 | x8 | x8 | x8 | x8 | x8 | x8 | x8 | x8 | x8 | x8 | x8 | x8 | x8 | x8 | x8 | x8 | x8 | x8 | %19
 x8 | x8 | x8 | x8 | x8 | x8 | x8 | x8 | x8 | x8 | x8 | x8 | x4[K:treble] x4 | x8 | x8 | %34
[K:bass] x8 | x8 | x8 | x8 | x8 | x8 | x8 | x8 | x8 | x8 | x8 | x8 | x8 | x8 | x8 | x8 | x8 | x8 | %52
 x8 | x8 | x8 | x8 | x8 | x8 | x8 | x8 | x8 | x8 | x8 | x8 | x8 | x8 | x8 | x8 | x8 | x8 | x8 | %71
 x8 | x8 | x8 | x8 | x8 | x8 | x8 | x8 | x8 | x8 |[K:bass] x8 | x8 | x8 | x8 | x8 | x8 | x8 | x8 | %89
 x8 | x8 | x8 | x8 | x8 | x8 | x8 | x8 | x8 | x8 | x8 | x8 | x8 | x8 | x8 | x8 | x8 | x8 | x8 | %108
 x8 | x8 | x8 | x8 | x8 | x8 | x8 | x8 | x8 | x8 | x8 | x8 | x8 | x8 | x8 | x8 | x8 | x8 | x8 | %127
 x8 | x8 | x8 | x8 | x8 | x8 | x8 | x8 | x8 | x8 | x8 | x8 | x8 | x8 | x8 | x8 | x8 | x8 | x8 | %146
 x8 | x8 | x2 x2 x4 | x8 | x2 x2 x4 | x8 | x8 | x8 | x8 | x8 | x8 | x8 | x8 | x8 | x8 | x8 | x8 | %163
 x8 | x8 | x8 | x8 | x8 | x8 | x8 | x8 | x8 | x8 | x8 | x8 | x8 | x8 | x8 | x8 | x8 | x8 | x8 | %182
 x8 | x8 | x8 | x8 | x8 | x8 | x8 | x8 | x8 | x8 | x8 | x8 | x8 | x8 | x8 | x8 | x8 | x8 | x8 | %201
 x8- | x3 x- x4 | x8 | x8 | x8 | x8 | x8 | x8 | x8 | x8 | x8 | x8 | x8 | x8 | x8 | x8 | x8 | x8 | %219
 x8 | x8 | x8 | x8 | x8 | x8 | x8 | x8 | x8 | x8 | x8 | x8 | x8 | x8 | x8 | x8 | x8 | x8 | x8 | %238
 x8 | x8 | x8 | x8 | x8 | x8 | x8 | x8 | x8 | x8 | x8 | x8 | x8 | x8 | x8 | x8 | x8 | x8 | x8 | %257
 x8 | x8 | x8 | x8 | x8 | x8 | x8 | x8 | x8 | x8 | x8 | x8 |[K:treble] x8 | x8 | x8 | x8 | x8 | %274
 x8 | x2[K:bass] x6 | x8 | x8 | x8 | x8 | x8 | x8 | x8 | x8 |[K:treble] x8 |[K:bass] x8 | x8 | x8 | %288
 x8 | x8 | x8 | x8 | x8 | x8 | x8 | x8 | x8 | x8 | x8 | x8 | x8 | x8 | x8 | x8 | x8 |] %305
V:8
 x8 | x8 | x8 | x8 | x8 | x8 | x8 | x8 | x8 | x8 | x8 | x8 | x8 | x8 | x8 | x8 | x8 | x8 | x8 | %19
 x8 | x8 | x8 | x8 | x8 | x8 | x8 | x8 | x8 | x8 | x8 | x8 | x8 | x8 | x8 | x8 | x8 | x8 | x8 | %38
 x8 | x8 | x8 | x8 | x8 | x8 | x8 | x8 | x8 | x8 | x8 | x8 | x8 | x8 | x8 | x8 | x8 | x8 | x8 | %57
 x8 | x8 | x8 | x8 | x8 | x8 | x8 | x8 | x8 | x8 | x8 | x8 | x8 | x8 | x8 | x8 | x8 | x8 | x8 | %76
 x8 | x8 | x8 | x8 | x8 | x8 | x8 | x8 | x8 | x8 | x8 | x8 | x8 | x8 | x8 | x8 | x8 | x8 | x8 | %95
 x8 | x8 | x8 | x8 | x8 | x8 | x8 | x8 | x8 | x8 | x8 | x8 | x8 | x8 | x8 | x8 | x8 | x8 | x8 | %114
 x8 | x8 | x8 | x8 | x8 | x8 | x8 | x8 | x8 | x8 | x8 | x8 | x8 | x8 | x8 | x8 | x8 | x8 | x8 | %133
 x8 | x8 | x8 | x8 | x8 | x8 | x8 | x8 | x8 | x8 | x8 | x8 | x8 | x8 | x8 | x8 | x8 | x8 | x8 | %152
 x8 | x8 | x8 | x8 | x8 | x8 | x8 | x8 | x8 | x8 | x8 | x8 | x8 | x8 | x8 | x8 | x8 | x8 | x8 | %171
 x8 | x8 | x8 | x8 | x8 | x8 | x8 | x8 | x8 | x8 | x8 | x8 | x8 | x8 | x8 | x8 | x8 | x8 | x8 | %190
 x8 | x8 | x8 | A4 x4 | x8 | x8 | z BAG F4 | z AGF E4 | z cBA G4 | x8 | x8 | z AGF E4 | c8 | %203
 z cBA d2 cB | A4 G4 | z AFD G2 A2 | G2 A2 B4- | B2 AG F4 | G4 x4 | x4 z AFD | x8 | x8 | x8 | x8 | %214
 x8 | x8 | x8 | x8 | x8 | x8 | x8 | x8 | x8 | x8 | x8 | x8 | x8 | x8 | x8 | x8 | x8 | x8 | x8 | %233
 x8 | x8 | x8 | x8 | x8 | x8 | x8 | x8 | x8 | x8 | x8 | x8 | x8 | x8 | x8 | x8 | x8 | x8 | x8 | %252
 x8 | x8 | x8 | x8 | x8 | x8 | x8 | x8 | x8 | x8 | x8 | x8 | x8 | x8 | x8 | x8 | x8 | x8 | x8 | %271
 x8 | x8 | x8 | x8 | x8 | x8 | x8 | x8 | x8 | x8 | x8 | x8 | x8 | x8 | x8 | x8 | x8 | x8 | x8 | %290
 x8 | x8 | x8 | x8 | x8 | x8 | x8 | x8 | x8 | x8 | x8 | x8 | x8 | x8 | x8 |] %305

